X:1
T: Jack Smith's Favourite Reel
C:
R:Reel
Q: 232
K:C
M:4/4
L:1/8
|:gf|ec Bc Gc Bc|ec ge c2 de|fd ^cd Ad cd|fd af d2 gf|
ec Bc Gc Bc|ec ge c2 fg|af ge fd ec|Gc Bd c2:|
|:gf|ef g2 ef g2|ef ge c2 de|fg a2 fg a2|fg af d2 gf|
ef g2 ef g2|ef ge ce fg|af ge fd ec|Gc Bd c2:|
